Adwaita++-Light/panel/16/skype-status-hidden-notification.svg

<svg height="16" width="16" xmlns="http://www.w3.org/2000/svg">
  <path d="m4.5 1c-1.9329966 0-3.5 1.5670034-3.5 3.5.0013473.9560274.3937103 1.8698943 1.0859375 2.5292969-.0549183.3207023-.0836589.6453405-.0859375.9707031 0 3.313708 2.6862915 6 6 6 .3252563-.000988.6498937-.028421.9707031-.082031.660069.690787 1.5738499 1.081703 2.5292969 1.082031 1.932997 0 3.5-1.567003 3.5-3.5-.001347-.956028-.39371-1.8698944-1.085938-2.5292969.054919-.3207023.083659-.6453405.085938-.9707031 0-3.3137085-2.686292-6-6-6-.3252563.0009878-.6498937.0284219-.9707031.0820312-.6600689-.6907881-1.5738498-1.0817029-2.5292969-1.0820312zm1.3789062 3.4648438 2.1210938 2.1210937 2.121094-2.1210937 1.414062 1.4140624-2.1210935 2.1210938 2.1210935 2.121094-1.414062 1.414062-2.121094-2.1210935-2.1210938 2.1210935-1.4140624-1.414062 2.1210937-2.121094-2.1210937-2.1210938z" fill="#444"/>
  <circle cx="14.5" cy="2.5" fill="#4285f4" r="1.5"/>
</svg>

<svg xmlns="http://www.w3.org/2000/svg" width="16" height="16" version="1">
 <defs>
  <style id="current-color-scheme" type="text/css">
   .ColorScheme-Text { color:#444444; } .ColorScheme-Highlight { color:#4285f4; }
  </style>
 </defs>
 <path style="fill:currentColor" class="ColorScheme-Text" d="M 4.5 1 C 2.5670034 1 1 2.5670034 1 4.5 C 1.0013473 5.4560274 1.3937103 6.3698943 2.0859375 7.0292969 C 2.0310192 7.3499992 2.0022786 7.6746374 2 8 C 2 11.313708 4.6862915 14 8 14 C 8.3252563 13.999012 8.6498937 13.971579 8.9707031 13.917969 C 9.6307721 14.608756 10.544553 14.999672 11.5 15 C 13.432997 15 15 13.432997 15 11.5 C 14.998653 10.543972 14.60629 9.6301056 13.914062 8.9707031 C 13.968981 8.6500008 13.997721 8.3253626 14 8 C 14 4.6862915 11.313708 2 8 2 C 7.6747437 2.0009878 7.3501063 2.0284219 7.0292969 2.0820312 C 6.369228 1.3912431 5.4554471 1.0003283 4.5 1 z M 5.8789062 4.4648438 L 8 6.5859375 L 10.121094 4.4648438 L 11.535156 5.8789062 L 9.4140625 8 L 11.535156 10.121094 L 10.121094 11.535156 L 8 9.4140625 L 5.8789062 11.535156 L 4.4648438 10.121094 L 6.5859375 8 L 4.4648438 5.8789062 L 5.8789062 4.4648438 z"/>
 <path style="fill:currentColor" class="ColorScheme-Text" d="M -25.069,-9.0812"/>
 <circle style="fill:currentColor" class="ColorScheme-Highlight" cx="14.5" cy="2.5" r="1.5"/>
</svg>
